icons/document-cross-outline.svg

<svg xmlns="http://www.w3.org/2000/svg" width="24" height="24" viewBox="0 0 24 24">
  <path d="M12,1 L12,8 C12,8.55228475 12.4477153,9 13,9 L20,9 L20,21 C20,22.1045695 19.1045695,23 18,23 L6,23 C4.8954305,23 4,22.1045695 4,21 L4,3 C4,1.8954305 4.8954305,1 6,1 L12,1 Z M10,3 L6,3 L6,21 L18,21 L18,11 L13,11 C11.4023191,11 10.0963391,9.75108004 10.0050927,8.17627279 L10,8 L10,3 Z M10.6128994,13.2097046 L10.7071068,13.2928932 L12,14.585 L13.2928932,13.2928932 C13.6834175,12.9023689 14.3165825,12.9023689 14.7071068,13.2928932 C15.0675907,13.6533772 15.0953203,14.2206082 14.7902954,14.6128994 L14.7071068,14.7071068 L13.415,16 L14.7071068,17.2928932 C15.0976311,17.6834175 15.0976311,18.3165825 14.7071068,18.7071068 C14.3466228,19.0675907 13.7793918,19.0953203 13.3871006,18.7902954 L13.2928932,18.7071068 L12,17.415 L10.7071068,18.7071068 C10.3165825,19.0976311 9.68341751,19.0976311 9.29289322,18.7071068 C8.93240926,18.3466228 8.90467972,17.7793918 9.20970461,17.3871006 L9.29289322,17.2928932 L10.585,16 L9.29289322,14.7071068 C8.90236893,14.3165825 8.90236893,13.6834175 9.29289322,13.2928932 C9.65337718,12.9324093 10.2206082,12.9046797 10.6128994,13.2097046 Z M14,1 L20,7 L15,7 C14.4871642,7 14.0644928,6.61395981 14.0067277,6.11662113 L14,6 L14,1 Z"/>
</svg>

<svg xmlns="http://www.w3.org/2000/svg" viewBox="0 0 24 24">
  <path d="M12 1v7a1 1 0 0 0 1 1h7v12a2 2 0 0 1-2 2H6a2 2 0 0 1-2-2V3c0-1.1.9-2 2-2h6zm-2 2H6v18h12V11h-5a3 3 0 0 1-3-2.82V3zm.61 10.21.1.08L12 14.6l1.3-1.3a1 1 0 0 1 1.49 1.32l-.08.1L13.4 16l1.3 1.3a1 1 0 0 1-1.32 1.49l-.1-.08L12 17.4l-1.3 1.3a1 1 0 0 1-1.49-1.32l.08-.1L10.6 16l-1.3-1.3a1 1 0 0 1 1.32-1.49zM14 1l6 6h-5a1 1 0 0 1-1-.88V1z"/>
</svg>
